!!!PDT:	1923
!!!LANG: Non-Tone
!!!LING_GROUP: Siouan
!!!REG: Dakotas
!!!COM: Anon.
!!!OTL: Why Did You Sleep?
!!!ODT: <1918//
!!!MPN: Marolipa [Buffalo Bull Head, Ben Benson]
!!!MLC: Fort Berthold Reservation, North Dakota, United States of America
!! Song was recorded during either the summer of 1912, 1915, or 1918.
!!!AGN: monody
!!!SOCIAL_FUNCTION: Mandan and Hidatsa Men's Fox Society
!!!AMT: irregular
!!!RWG: Transcribed pitches, durations, and meters are only approximate.
!! Drum Tempo: MM80
!! Drum-rhythm (approximate): (12^ 12r 12) (12^ 12r 12) (12^ 12r 12) (12^ 12 12)
**kern
*ICvox
*Imale
*clefG2
*k[b-e-a-d-g-]
*M2/4
*MM80
=1-
4f
8.f
16f
*M3/4
4dd-
16b-
8.b-
4b-
=2
16b-
8.b-
(12b-
12b-
12a-)
4f
=3
4a-
16f
8.f
8.f
16c
=4
16f
8.d-
16d-
8.d-
8.d-
16B-
*M2/4
=5
(12B-
12A-
12A-)
8.F
16d-
=6
8.d-
16d-
8.d-
16d-
*M3/4
=7
(12f
12d-
12B-)
(12B-
12A-
12A-)
8.F
16E-
*M2/4
=8
4.F
8E-
=9
2F
==
*-
!!!CNT: Mandan
!!!TXO: Mandan
!!!OCY: United States
!!!OCL: Frances Densmore
!!!YOR: Frances Densmore, "Mandan and Hidatsa Music",
!!!YOR: Bulletin 80, page 128, No. 59
!!!PPR: Smithsonian Institution, Bureau of American Ethnology
!!!PPR: Government Printing Office
!!!PDT: 1923
!!!PPP: Washington, DC, United States of America
!!!YEC: Electronic Copyright 2000 David Huron
!!!YER: August 2000
!!!YEN: United States of America
!!!ENC: David Huron
!!!RDT: August 17, 2000
!!!EEV: Release 1.0
!!!AIN: tom, vox
